src/images/partners/debank.svg

<svg width="80" height="80" viewBox="0 0 80 80" fill="none" xmlns="http://www.w3.org/2000/svg">
<g clip-path="url(#clip0_6701_86579)">
<path d="M68 1.48619e-06L12 2.62268e-07C5.37258 1.17422e-07 -1.17422e-07 5.37258 -2.62268e-07 12L-1.48619e-06 68C-1.63103e-06 74.6274 5.37258 80 12 80L68 80C74.6274 80 80 74.6274 80 68L80 12C80 5.37259 74.6274 1.63103e-06 68 1.48619e-06Z" fill="#FE815F"/>
<path opacity="0.8" fill-rule="evenodd" clip-rule="evenodd" d="M61.4837 49.8038C61.4837 57.9402 54.7889 64.536 46.5305 64.536L18.2856 64.536L18.2856 54.7145L46.5305 54.7145C49.2833 54.7145 51.5149 52.5159 51.5149 49.8038C51.5149 47.0917 49.2833 44.8931 46.5305 44.8931L36.5617 44.8931L36.5617 35.0716L46.5305 35.0716C49.2833 35.0716 51.5149 32.873 51.5149 30.1609C51.5149 27.4488 49.2833 25.2502 46.5305 25.2502L18.2856 25.2502L18.2856 15.4287L46.5305 15.4287C54.7889 15.4287 61.4837 22.0245 61.4837 30.1609C61.4837 33.9341 60.0439 37.376 57.6761 39.9824C60.0439 42.5888 61.4837 46.0306 61.4837 49.8038Z" fill="white"/>
<path opacity="0.12" d="M18.2856 54.7145L42.5451 54.7145C37.392 60.6784 29.1878 64.536 19.9471 64.536C19.3894 64.536 18.8354 64.522 18.2856 64.4942L18.2856 54.7145ZM47.627 44.8931L38.2232 44.8931L38.2232 35.0716L47.627 35.0716C47.9975 36.6583 48.192 38.3006 48.192 39.9824C48.192 41.6641 47.9975 43.3064 47.627 44.8931ZM42.5451 25.2502L18.2856 25.2502L18.2856 15.4705C18.8354 15.4428 19.3894 15.4287 19.9471 15.4287C29.1878 15.4287 37.392 19.2864 42.5451 25.2502Z" fill="black"/>
<path d="M18.2856 15.4287C32.0497 15.4287 43.2076 26.4218 43.2076 39.9824C43.2076 53.543 32.0497 64.536 18.2856 64.536L18.2856 54.7145C26.5441 54.7145 33.2388 48.1187 33.2388 39.9824C33.2388 31.846 26.5441 25.2502 18.2856 25.2502L18.2856 15.4287Z" fill="white"/>
</g>
<defs>
<clipPath id="clip0_6701_86579">
<rect width="80" height="80" fill="white"/>
</clipPath>
</defs>
</svg>

<svg xmlns="http://www.w3.org/2000/svg" width="80" height="80" fill="none"><g clip-path="url(#a)"><path fill="#FE815F" d="M68 0H12C5.373 0 0 5.373 0 12v56c0 6.627 5.373 12 12 12h56c6.627 0 12-5.373 12-12V12c0-6.627-5.373-12-12-12Z"/><path fill="#fff" fill-rule="evenodd" d="M61.484 49.804c0 8.136-6.695 14.732-14.953 14.732H18.286v-9.822H46.53c2.752 0 4.984-2.198 4.984-4.91s-2.232-4.91-4.984-4.91h-9.97v-9.822h9.97c2.752 0 4.984-2.199 4.984-4.911 0-2.712-2.232-4.91-4.984-4.91H18.286v-9.822H46.53c8.258 0 14.953 6.595 14.953 14.732 0 3.773-1.44 7.215-3.808 9.821a14.555 14.555 0 0 1 3.808 9.822Z" clip-rule="evenodd" opacity=".8"/><path fill="#000" d="M18.286 54.715h24.26c-5.154 5.963-13.358 9.821-22.599 9.821-.558 0-1.112-.014-1.661-.042v-9.78Zm29.341-9.822h-9.404v-9.821h9.404c.37 1.586.565 3.229.565 4.91 0 1.682-.194 3.324-.565 4.911ZM42.545 25.25h-24.26v-9.78a33.02 33.02 0 0 1 1.662-.041c9.24 0 17.445 3.857 22.598 9.821Z" opacity=".12"/><path fill="#fff" d="M18.286 15.429c13.764 0 24.922 10.993 24.922 24.553 0 13.561-11.158 24.554-24.922 24.554v-9.822c8.258 0 14.953-6.595 14.953-14.732 0-8.136-6.695-14.732-14.953-14.732V15.43Z"/></g><defs><clipPath id="a"><path fill="#fff" d="M0 0h80v80H0z"/></clipPath></defs></svg>
